public/img/brands/netflix.svg

<svg width="108" height="29" viewBox="0 0 108 29" fill="none" xmlns="http://www.w3.org/2000/svg">
<g clip-path="url(#clip0)">
<path d="M14.7143 27.096C13.1046 27.3787 11.4665 27.4635 9.77197 27.6892L4.60346 12.5513V28.3389C2.9937 28.5083 1.52512 28.7342 0 28.9602V0.0397949H4.29298L10.1673 16.449V0.0397949H14.7143V27.096ZM23.6108 10.6308C25.3619 10.6308 28.0449 10.546 29.6547 10.546V15.0647C27.6494 15.0647 25.3054 15.0647 23.6108 15.1495V21.8713C26.2657 21.7019 28.9205 21.4758 31.6034 21.391V25.7401L19.0919 26.7288V0.0397949H31.6034V4.55861H23.6108V10.6308ZM48.4077 4.55871H43.7195V25.3452C42.1943 25.3452 40.6692 25.3452 39.2008 25.4015V4.55871H34.5126V0.0397949H48.4079L48.4077 4.55871V4.55871ZM55.7507 10.3202H61.9359V14.8389H55.7507V25.091H51.3163V0.0397949H63.9411V4.55861H55.7507V10.3202ZM71.2841 21.137C73.8542 21.1933 76.4524 21.3913 78.9661 21.5323V25.9947C74.9275 25.7403 70.8888 25.4865 66.7654 25.4015V0.0397949H71.2841V21.137ZM82.7788 26.3054C84.2192 26.3902 85.7443 26.475 87.2129 26.6442V0.0397949H82.7788V26.3054ZM107.011 0.0397949L101.278 13.794L107.011 28.9602C105.316 28.7342 103.622 28.4235 101.927 28.1411L98.6795 19.7815L95.3754 27.4635C93.737 27.1808 92.1554 27.096 90.5177 26.8701L96.3356 13.6243L91.0823 0.0397949H95.9398L98.9053 7.63706L102.069 0.0397949H107.011Z" fill="black"/>
</g>
<defs>
<clipPath id="clip0">
<rect width="107.011" height="29" fill="white"/>
</clipPath>
</defs>
</svg>

<?xml version="1.0" encoding="UTF-8"?>
<svg fill="none" viewBox="0 0 108 29" xmlns="http://www.w3.org/2000/svg">
<g clip-path="url(#a)">
<path d="m14.714 27.096c-1.6097 0.2827-3.2478 0.3675-4.9423 0.5932l-5.1685-15.138v15.788c-1.6098 0.1694-3.0783 0.3953-4.6035 0.6213v-28.92h4.293l5.8743 16.409v-16.409h4.547v27.056zm8.8965-16.465c1.7511 0 4.4341-0.0848 6.0439-0.0848v4.5187c-2.0053 0-4.3493 0-6.0439 0.0848v6.7218c2.6549-0.1694 5.3097-0.3955 7.9926-0.4803v4.3491l-12.512 0.9887v-26.689h12.512v4.5188h-7.9926v6.0722zm24.797-6.0721h-4.6882v20.786c-1.5252 0-3.0503 0-4.5187 0.0563v-20.843h-4.6882v-4.5189h13.895l-2e-4 4.5189zm7.343 5.7615h6.1852v4.5187h-6.1852v10.252h-4.4344v-25.051h12.625v4.5188h-8.1904v5.7616zm15.533 10.817c2.5701 0.0563 5.1683 0.2543 7.682 0.3953v4.4624c-4.0386-0.2544-8.0773-0.5082-12.201-0.5932v-25.362h4.5187v21.097zm11.495 5.1684c1.4404 0.0848 2.9655 0.1696 4.4341 0.3388v-26.604h-4.4341v26.266zm24.232-26.266-5.733 13.754 5.733 15.166c-1.695-0.226-3.389-0.5367-5.084-0.8191l-3.2475-8.3596-3.3041 7.682c-1.6384-0.2827-3.22-0.3675-4.8577-0.5934l5.8179-13.246-5.2533-13.585h4.8575l2.9655 7.5973 3.1637-7.5973h4.942z" fill="#000"/>
</g>
<defs>
<clipPath id="a">
<rect width="107.01" height="29" fill="#fff"/>
</clipPath>
</defs>
</svg>
